X:67
T:Highland Lad My Love Was Born, A
C:arr. Carlo Minasi
M:C
L:1/8
B:Chappell's One Hundred Scotch Melodies
B:Arranged for the Concertina by Carlo Minasi
Q:"Allegretto  "1/4=140
Z:Peter Dunk 2012
K:G
!mf!(GA)|.[B2G2].[B2G2].[B2G2] ([AD][GB,])|\
.[B2G2].[B2G2].[B2G2] [g2B2]|\
[d2B2].[B2G2].[B2G2] ([AD][GB,])|\
L[B2G2][A2D2][A2D2] ([GB,][AD])|
%
[B2G2][B2G2] (dBAG)|.[B2G2][d2B2]L[g2B2]!f!ga|\
L(bagf) L(agfe)|L[d2B2][B2G2][B2G2]||
%
!mf![BG][cA]|[d2B2].[B2G2].[g2B2].[B2G2]|\
[d2B2][d2B2][d2B2][e2c2]|[d2B2][B2G2]([g2B2][fA][gB])|\
[a2c2][A2D2]([A2D2][GB,][AD])|
%
.[B2G2].[B2G2] ([cA][BG][AD][GB,])|\
.[B2G2].[d2B2].[g2B2]([gB][ad])|\
!f!([bg][ad][gB][fd]) ([af][ge][fd][ec])|\
L[d2B2][B2G2D2][B2G2D2]||

